src/main/resources/icons/CidrLangIcons/icons/codeAssistantStructExtension.svg

<svg xmlns="http://www.w3.org/2000/svg" width="16" height="16" viewBox="0 0 16 16">
  <g fill="none" fill-rule="evenodd">
    <rect width="14" height="14" x="1" y="1" fill="#B99BF8" fill-opacity=".6" rx="3"/>
    <path fill="#231F20" fill-opacity=".7" d="M1,2 L2.5,2 L2.5,3 L1,3 L1,4 L3.00122418,4 L3.00122418,5 L0.00122417514,5 L0,5 L0,1 L0,0 L3,0 L3,1 L1,1 L1,2 Z" transform="translate(10.012 7.998)"/>
    <path fill="#231F20" fill-opacity=".7" d="M9,9.83289848 L9,10.8800335 C8.7461685,10.9589073 8.46134117,11 8.15333333,11 C7.26166667,11 6.42,10.6916667 5.72,10.0666667 L6.33666667,9.33333333 C6.895,9.81666667 7.46166667,10.0916667 8.17833333,10.0916667 C8.53729248,10.0916667 8.82129636,9.99529561 9,9.83289848 Z M9,8.86434422 C8.81290356,8.71110862 8.47633295,8.58415376 7.895,8.45 C6.65333333,8.15 5.95333333,7.78333333 5.95333333,6.70833333 L5.95333333,6.69166667 C5.95333333,5.69166667 6.78666667,5 7.945,5 C8.795,5 9.47,5.25833333 10.0616667,5.73333333 L9.51166667,6.50833333 C8.98666667,6.11666667 8.46166667,5.90833333 7.92833333,5.90833333 C7.32833333,5.90833333 6.97833333,6.21666667 6.97833333,6.6 L6.97833333,6.61666667 C6.97833333,7.06666667 7.245,7.26666667 8.37,7.53333333 C8.60114836,7.58955861 8.8112215,7.65075998 9,7.71946096 L9,8.86434422 Z"/>
  </g>
</svg>

<svg xmlns="http://www.w3.org/2000/svg" width="16" height="16" viewBox="0 0 16 16"><rect id="frame" width="16" height="16" fill="none"/><g fill="none" fill-rule="evenodd"><rect width="14" height="14" x="1" y="1" fill="#B99BF8" fill-opacity=".6" rx="3"/><path fill="#231F20" fill-opacity=".7" d="M11.012 9.998h1.5v1h-1.5v1h2.001v1h-3.001v-5h3v1h-2v1z"/><path fill="#231F20" fill-opacity=".7" d="M9 9.833v1.047c-.254.079-.539.12-.847.12a3.593 3.593 0 0 1-2.433-.933l.617-.734c.558.484 1.125.759 1.841.759.36 0 .643-.097.822-.26zm0-.969c-.187-.153-.524-.28-1.105-.414-1.242-.3-1.942-.667-1.942-1.742v-.016c0-1 .834-1.692 1.992-1.692.85 0 1.525.258 2.117.733l-.55.775c-.525-.391-1.05-.6-1.584-.6-.6 0-.95.309-.95.692v.017c0 .45.267.65 1.392.916.231.057.441.118.63.186v1.145z"/></g></svg>
